svg/sport/football_fill.svg

<?xml version="1.0" encoding="UTF-8"?>
<svg width="24px" height="24px" viewBox="0 0 24 24" version="1.1" xmlns="http://www.w3.org/2000/svg" xmlns:xlink="http://www.w3.org/1999/xlink">
    <title>football_fill</title>
    <g id="Icon" stroke="none" stroke-width="1" fill="none" fill-rule="evenodd">
        <g id="Sport" transform="translate(-528.000000, -48.000000)" fill-rule="nonzero">
            <g id="football_fill" transform="translate(528.000000, 48.000000)">
                <path d="M24,0 L24,24 L0,24 L0,0 L24,0 Z M12.5935,23.2578 L12.5819,23.2595 L12.5109,23.295 L12.4919,23.2987 L12.4767,23.295 L12.4057,23.2595 C12.3958,23.2564 12.387,23.259 12.3821,23.2649 L12.378,23.2758 L12.3609,23.7031 L12.3659,23.7235 L12.3769,23.7357 L12.4805,23.8097 L12.4953,23.8136 L12.5071,23.8097 L12.6107,23.7357 L12.6233,23.7197 L12.6267,23.7031 L12.6096,23.2758 C12.6076,23.2657 12.601,23.2593 12.5935,23.2578 Z M12.8584,23.1453 L12.8445,23.1473 L12.6598,23.2397 L12.6499,23.2499 L12.6472,23.2611 L12.6651,23.6906 L12.6699,23.7034 L12.6784,23.7105 L12.8793,23.8032 C12.8914,23.8069 12.9022,23.803 12.9078,23.7952 L12.9118,23.7812 L12.8777,23.1665 C12.8753,23.1546 12.8674,23.147 12.8584,23.1453 Z M12.143,23.1473 C12.1332,23.1424 12.1222,23.1453 12.1156,23.1526 L12.1099,23.1665 L12.0758,23.7812 C12.0751,23.7927 12.0828,23.8019 12.0926,23.8046 L12.1083,23.8032 L12.3092,23.7105 L12.3186,23.7024 L12.3225,23.6906 L12.3404,23.2611 L12.3372,23.2485 L12.3278,23.2397 L12.143,23.1473 Z" id="MingCute"></path>
                <path d="M12,2 C17.5228,2 22,6.47715 22,12 C22,17.5228 17.5228,22 12,22 C6.47715,22 2,17.5228 2,12 C2,6.47715 6.47715,2 12,2 Z M15.4079,4.76008 L12.5878,6.80902 C12.27235,7.038196 11.856379,7.0611136 11.5208248,6.8777728 L11.4122,6.80902 L8.59211,4.76008 C7.77729222,5.14428444 7.03782062,5.66199605 6.40188679,6.28500214 L6.16832,6.52351 L7.24484,9.83671 C7.365332,10.207501 7.2585866,10.6102141 6.98052539,10.8726522 L6.88157,10.9547 L4.06228,13.0031 C4.17601333,13.9122556 4.44232741,14.7740827 4.83477942,15.5620333 L4.98781,15.854 L8.47335,15.854 C8.86719545,15.854 9.2203219,16.0844959 9.3818503,16.4359459 L9.42441,16.5449 L10.5015,19.8599 C10.9869,19.9519 11.4878,20 12,20 C12.38415,20 12.762,19.9729437 13.1317359,19.9206031 L13.4987,19.8599 L14.5757,16.545 C14.6974273,16.1704545 15.0257661,15.9059091 15.4100028,15.8609053 L15.5268,15.8541 L19.0121,15.8541 C19.4357444,15.0849444 19.7365247,14.2386728 19.8879628,13.3416929 L19.9377,13.003 L17.1186,10.9548 C16.80315,10.72557 16.652859,10.337094 16.7234955,9.96131394 L16.7553,9.83676 L17.8318,6.52366 C17.2222,5.87471778 16.5054593,5.32755136 15.7098818,4.91037342 L15.4079,4.76008 Z M11.4122,8.19098 C11.72765,7.961804 12.143621,7.9388864 12.4791752,8.1222272 L12.5878,8.19098 L15.441,10.2639 C15.75645,10.49313 15.906741,10.881606 15.8361045,11.2574298 L15.8043,11.382 L14.7144,14.7361 C14.5927636,15.1106455 14.2643504,15.3752736 13.8801746,15.4202923 L13.7634,15.4271 L10.2367,15.4271 C9.84283636,15.4271 9.48970826,15.1965215 9.3281722,14.8450564 L9.28561,14.7361 L8.1958,11.382 C8.075317,11.01111 8.1820633,10.608468 8.46011731,10.3459722 L8.55907,10.2639 L11.4122,8.19098 Z" id="形状" fill="#09244B"></path>
            </g>
        </g>
    </g>
</svg>

<svg xmlns="http://www.w3.org/2000/svg" width="24" height="24"><g fill="none" fill-rule="nonzero"><path d="M24 0v24H0V0h24ZM12.594 23.258l-.012.002-.071.035-.02.004-.014-.004-.071-.036c-.01-.003-.019 0-.024.006l-.004.01-.017.428.005.02.01.013.104.074.015.004.012-.004.104-.074.012-.016.004-.017-.017-.427c-.002-.01-.009-.017-.016-.018Zm.264-.113-.014.002-.184.093-.01.01-.003.011.018.43.005.012.008.008.201.092c.012.004.023 0 .029-.008l.004-.014-.034-.614c-.003-.012-.01-.02-.02-.022Zm-.715.002a.023.023 0 0 0-.027.006l-.006.014-.034.614c0 .012.007.02.017.024l.015-.002.201-.093.01-.008.003-.011.018-.43-.003-.012-.01-.01-.184-.092Z"/><path fill="#09244B" d="M12 2c5.523 0 10 4.477 10 10s-4.477 10-10 10S2 17.523 2 12 6.477 2 12 2Zm3.408 2.76-2.82 2.049a1 1 0 0 1-1.067.069l-.109-.069-2.82-2.049a8.018 8.018 0 0 0-2.19 1.525l-.234.239 1.077 3.313a1 1 0 0 1-.264 1.036l-.1.082-2.819 2.048c.114.91.38 1.771.773 2.559l.153.292h3.485a1 1 0 0 1 .909.582l.042.109 1.078 3.315a8.041 8.041 0 0 0 2.63.06l.367-.06 1.077-3.315a1 1 0 0 1 .834-.684l.117-.007h3.485c.424-.77.725-1.615.876-2.512l.05-.339-2.82-2.048a1 1 0 0 1-.395-.994l.032-.124 1.077-3.313A8.029 8.029 0 0 0 15.71 4.91l-.302-.15Zm-3.996 3.431a1 1 0 0 1 1.067-.069l.109.069 2.853 2.073a1 1 0 0 1 .395.993l-.032.125-1.09 3.354a1 1 0 0 1-.834.684l-.117.007h-3.526a1 1 0 0 1-.909-.582l-.042-.109-1.09-3.354a1 1 0 0 1 .264-1.036l.1-.082 2.852-2.073Z"/></g></svg>
